icons/send.svg

<svg width="24" height="24" viewBox="0 0 24 24" fill="none" xmlns="http://www.w3.org/2000/svg">
<path d="M10.5781 13.4218C10.6291 13.4729 10.671 13.5331 10.7011 13.6C11.6911 16.3809 12.7692 19.0964 14.278 21.6474C14.3263 21.7563 14.4063 21.8482 14.5074 21.9112C14.6086 21.9741 14.7264 22.0052 14.8454 22.0004C14.9645 21.9956 15.0793 21.9552 15.1751 21.8843C15.2709 21.8134 15.3432 21.7154 15.3826 21.6029C18.2318 16.0216 20.3561 10.0989 21.7036 3.97896L21.9654 2.79017C22.0019 2.68478 22.0081 2.57124 21.9831 2.46252C21.9582 2.35379 21.9032 2.25428 21.8244 2.17535C21.7456 2.09642 21.6461 2.04125 21.5374 2.01616C21.4288 1.99106 21.3152 1.99705 21.2098 2.03344C15.6284 4.88306 9.7057 7.00764 3.58564 8.35556L2.39699 8.61735C2.28487 8.65694 2.1872 8.72923 2.11659 8.8249C2.04598 8.92056 2.00568 9.0352 2.00089 9.15401C1.99611 9.27281 2.02706 9.39032 2.08974 9.49136C2.15243 9.59239 2.24397 9.67231 2.35254 9.72078C4.80993 11.4241 7.44362 12.7191 10.3999 13.2989C10.4668 13.329 10.5271 13.3708 10.5781 13.4218ZM10.5781 13.4218C12.1006 12.528 13.812 11.2875 15 10" stroke="black" stroke-width="2" stroke-linecap="round" stroke-linejoin="round"/>
</svg>

<svg xmlns="http://www.w3.org/2000/svg" width="24" height="24" viewBox="0 0 24 24" fill="none" stroke="currentColor" stroke-width="2" stroke-linecap="round" stroke-linejoin="round">
<path d="M10.578 13.422a.6.6 0 0 1 .123.178c.99 2.78 2.068 5.496 3.577 8.047a.595.595 0 0 0 1.105-.044 73.5 73.5 0 0 0 6.32-17.624l.262-1.189a.594.594 0 0 0-.755-.757A73.6 73.6 0 0 1 3.586 8.356l-1.189.261a.595.595 0 0 0-.044 1.104c2.457 1.703 5.09 2.998 8.047 3.578a.6.6 0 0 1 .178.123m0 0C12.101 12.528 13.812 11.287 15 10"/>
</svg>
